archive-star-outline.svg

<svg fill="currentColor" viewBox="0 0 24 24"><path d="M18 13.09V10h2v3.09c-.33-.05-.66-.09-1-.09s-.67.04-1 .09M9.5 11c-.28 0-.5.22-.5.5V13h6v-1.5c0-.28-.22-.5-.5-.5zM6 19v-9H4v11h9.35c-.22-.63-.35-1.3-.35-2zM21 9H3V3h18zm-2-4H5v2h14zm4 12.89-2.89-.25L19 15l-1.13 2.64-2.87.25 2.18 1.88-.68 2.81 2.5-1.49 2.45 1.49-.65-2.81z"/></svg>

<svg  viewBox="0 0 24 24" fill="currentColor"><path  d="M18 13.09V10H20V13.09C19.67 13.04 19.34 13 19 13C18.66 13 18.33 13.04 18 13.09M9.5 11C9.22 11 9 11.22 9 11.5V13H15V11.5C15 11.22 14.78 11 14.5 11H9.5M6 19V10H4V21H13.35C13.13 20.37 13 19.7 13 19H6M21 9H3V3H21V9M19 5H5V7H19V5M23 17.89L20.11 17.64L19 15L17.87 17.64L15 17.89L17.18 19.77L16.5 22.58L19 21.09L21.45 22.58L20.8 19.77L23 17.89Z"/></svg>
